!!!COM: Haydn, Franz Joseph
!!!CDT: 1732/3/31/-1809/5/31/
!!!CNT: Oesterreich
!!!OTL: String Quartet in C Major
!!!OPS: Opus 20
!!!ONM: No. 2
!!!OMD: Adagio
!!!OMV: 2
!!!SCT: H III:32
!!!SCA: Thematisch-bibliographisches Werkevererzeichnis (A. van Hoboken)
!!!YOR: Altmann Edition
!!!ENC: Nestor Napoles
!!!YEC: Copyright (c) 2017 Music Technology Group, Universitat Pompeu Fabra
!!!YEM: Rights to all derivative editions reserved.
!!!YEM: Refer to licensing agreement for further details.
!!!YEN: Barcelona, Spain
**tshrm	**tsroot	**kern	**kern	**kern	**kern
*k[b-e-a-]	*k[b-e-a-]	*k[b-e-a-]	*k[b-e-a-]	*k[b-e-a-]	*k[b-e-a-]
*	*	*c:	*c:	*c:	*c:
*	*	*clefF4	*clefC3	*clefG2	*clefG2
*met(c)	*met(c)	*met(c)	*met(c)	*met(c)	*met(c)
*M4/4	*M4/4	*M4/4	*M4/4	*M4/4	*M4/4
*E-:	*E-:	*	*	*	*
IVb	A-	4C/	4c\	4c/	4c/
.	A-	4E-\	4e-\	4e-/	4e-/
ivb	A-	8BBn\L	8Bn\L	8Bn/L	8Bn/L
Ib	E-	8G\J	8g\J	8g/J	8g/J
.	r	8r	8r	8r	8r
ivb	A-	8Bn\	8bn\	8bn\	8bn\
=2	=2	=2	=2	=2	=2
IV	A-	8.c\L	8.cc\L	8.cc\L	8.cc\L
.	A-	16B-\Jk	16b-\Jk	16b-\Jk	16b-\Jk
.	A-	8.A-\L	8.a-\L	8.a-/L	8.a-/L
.	A-	32G\LL	32g\LL	32g/LL	32g/LL
.	A-	32A-\JJJ	32a-\JJJ	32a-/JJJ	32a-/JJJ
V	B-	8B-\L	8b-\L	8b-/L	8b-/L
.	B-	8BB-\J	8B-\J	8B-/J	8B-/J
I	E-	8r	8r	8r	8r
.	E-	8B-\	8b-\	8b-\	8b-\
=3	=3	=3	=3	=3	=3
.	E-	8.G\L	8.g\L	8.g/L	8.g/L
.	E-	32F\LL	32f\LL	32f/LL	32f/LL
.	E-	32G\JJJ	32g\JJJ	32g/JJJ	32g/JJJ
IV	A-	8A-\L	8a-\L	8a-/L	8a-/L
.	A-	16.AA-\L	16.A-\L	16.A-/L	16.A-/L
.	A-	32A-\JJk	32a-\JJk	32a-/JJk	32a-/JJk
ii7d	F	8.F\L	8.f\L	8.f/L	8.f/L
.	F	32E-\LL	32e-\LL	32e-/LL	32e-/LL
.	F	32F\JJJ	32f\JJJ	32f/JJJ	32f/JJJ
iii	G	8G/L	8g\L	8g/L	8g/L
iii7	G	16.GG/L	16.G\L	16.G/L	16.G/L
.	G	32F/JJk	32f\JJk	32f/JJk	32f/JJk
=4	=4	=4	=4	=4	=4
!!linebreak:original
vi	C	16.E-/LL	16.e-\LL	16.e-/LL	16.e-/LL
.	C	32D/K	32d\K	32d/K	32d/K
vi7d	C	16.C/	16.c\	16.c/	16.c/
.	C	32BB-/JJk	32B-\JJk	32B-/JJk	32B-/JJk
ii	F	8.AA-/L	8.A-/L	8.A-/L	8.A-/L
.	F	32GG/LL	32G/LL	32G/LL	32G/LL
.	F	32AA-/JJJ	32A-/JJJ	32A-/JJJ	32A-/JJJ
iii	G	8GG/L	8G\L	8G/L	8G/L
.	G	8G/J	8g\J	8g/J	8g/J
.	r	4r	4r	4r	4r
=5	=5	=5	=5	=5	=5
.	C	4C/	16c\LL	16e-/LL	16g/LL
.	C	.	16c\	16e-/	16g/
.	C	.	16c\	16e-/	16g/
.	C	.	16c\JJ	16e-/JJ	16g/JJ
.	C	4E-\	16c\LL	16e-/LL	16g/LL
.	C	.	16c\	16e-/	16g/
.	C	.	16c\	16e-/	16g/
.	C	.	16c\JJ	16e-/JJ	16g/JJ
V7b/vi	G	8BBn\L	16d\LL	16f/LL	16g/LL
.	G	.	16d\	16f/	16g/
.	G	8G\J	16d\	16f/	16g/
.	G	.	16d\JJ	16f/JJ	16g/JJ
.	G	8r	16d\LL	16f/LL	16g/LL
.	G	.	16d\	16f/	16g/
.	G	8Bn\	16d\	16f/	16g/
.	G	.	16d\JJ	16f/JJ	16g/JJ
=6	=6	=6	=6	=6	=6
vi	C	8.c\L	16c\LL	16e-/LL	16g/LL
.	C	.	16c\	16e-/	16g/
vi7d	C	.	16c\	16e-/	16g/
.	C	16B-\Jk	16c\JJ	16e-/JJ	16g/JJ
ii7b	F	8.A-\L	16c\LL	16e-/LL	16f/LL
.	F	.	16c\	16e-/	16f/
.	F	.	16c\	16e-/	16f/
.	F	32G\LL	16c\JJ	16e-/JJ	16f/JJ
.	F	32A-\JJJ	.	.	.
V	B-	8B-\L	16B-/LL	16d/LL	16f/LL
.	B-	.	16B-/	16d/	16f/
.	B-	8BB-\J	16B-/	16d/	16f/
.	B-	.	16B-/JJ	16d/JJ	16f/JJ
.	B-	8r	16B-/LL	16d/LL	16f/LL
.	B-	.	16B-/	16d/	16f/
.	B-	8B-\	16B-/	16d/	16f/
.	B-	.	16B-/JJ	16d/JJ	16f/JJ
=7	=7	=7	=7	=7	=7
!!linebreak:original
iii	G	8.G\L	16B-/LL	16d/LL	16e-/LL
.	G	.	16B-/	16d/	16e-/
iii7d	G	.	16B-/	16d/	16e-/
.	G	32F\LL	16B-/JJ	16d/JJ	16e-/JJ
.	G	32G\JJJ	.	.	.
IV	A-	8A-\L	16A-/LL	16c/LL	16e-/LL
.	A-	.	16A-/	16c/	16e-/
.	A-	16.AA-\L	16A-/	16c/	16e-/
.	A-	.	16A-/JJ	16c/JJ	16e-/JJ
.	A-	32A-\JJk	.	.	.
ii	F	8.F\L	16A-/LL	16c/LL	16d/LL
.	F	.	16A-/	16c/	16d/
ii7d	F	.	16A-/	16c/	16d/
.	F	32E-\LL	16A-/JJ	16c/JJ	16d/JJ
.	F	32F\JJJ	.	.	.
III	G	8G/L	16G/LL	16Bn/LL	16d/LL
.	G	.	16G/	16B/	16d/
.	G	16.GG/L	16G/	16B/	16d/
.	G	.	16G/JJ	16B/JJ	16d/JJ
.	G	32G/JJk	.	.	.
=8	=8	=8	=8	=8	=8
vi	C	16.C/LL	16.G/LL	16.c/LL	16.e-/LL
.	C	32C/K	32G/K	32c/K	32e-/K
vi7d	C	16.BB-/	16.G/	16.c/	16.e-/
.	C	32BB-/JJk	32G/JJk	32c/JJk	32e-/JJk
iib	F	8AA-/	8A-/	8c/	8f/
.	F	8r	8r	8r	8r
.	F	16.A-\LL	16.A-/LL	16.c/LL	16.f/LL
.	F	32A-\K	32A-/K	32c/K	32f/K
V7b/ii	C	16.En\	16.B-/	16.c/	16.g/
.	C	32E\JJk	32B-/JJk	32c/JJk	32g/JJk
ii	F	8F\	8A-/	8c/	8a-/
.	F	8r	8r	8r	16r
.	F	.	.	.	16A-/
=9	=9	=9	=9	=9	=9
!!pagebreak:original
.	F	1r	2r	1r	16c/LL
.	F	.	.	.	16f/
.	F	.	.	.	16a-/
.	F	.	.	.	16cc/JJ
.	F	.	.	.	16ff\LL
.	F	.	.	.	16aa-\
.	F	.	.	.	16ccc\
.	F	.	.	.	16bb-\JJ
.	F	.	16r	.	16aa-\LL
.	F	.	16b-\LL	.	16gg\
.	F	.	16a-\	.	16ff\
.	F	.	16g\JJ	.	16een\JJ
.	F	.	16b-\LL	.	16gg\LL
.	F	.	16a-\	.	16ff\
.	F	.	16cc\	.	16aa-\
.	F	.	16b-\JJ	.	16gg\JJ
=10	=10	=10	=10	=10	=10
ii7	F	2r	16a-\LL	16r	16ff\LL
.	F	.	16g\	16b-/LL	16ee-\
.	F	.	16f\	16a-/	16dd\
.	F	.	16e-\JJ	16g/JJ	16cc\JJ
V7	B-	.	16d/LL	16f/LL	16b-/LL
.	B-	.	16c/	16e-/	16a-/
.	B-	.	16B-/	16d/	16g/
.	B-	.	16A-/JJ	16c/JJ	16f/JJ
Ib	E-	16.G\LL	16.G/LL	16.B-/LL	16.e-/LL
.	E-	32G\K	32G/K	32B-/K	32e-/K
V7c	B-	16.F\	16.B-/	16.d/	16.a-/
.	B-	32F\JJk	32B-/JJk	32d/JJk	32a-/JJk
I	E-	8E-\	8B-/	8e-/	8g/
.	r	8r	8r	8r	8r
=11	=11	=11	=11	=11	=11
!!linebreak:original
.	E-	16.E-\LL	16.B-\LL	16.e-/LL	16.g/LL
.	E-	32E-\K	32B-\K	32e-/K	32g/K
V7d/IV	E-	16.D-\	16.e-\	16.g/	16.b-/
.	E-	32D-\JJk	32e-\JJk	32g/JJk	32b-/JJk
IVb	A-	8C/	8e-\	8a-/	8ee-\
.	r	8r	8r	8r	16r
.	A-	.	.	.	16A-/
.	A-	2r	2r	2r	16c/LL
.	A-	.	.	.	16e-/
.	A-	.	.	.	16a-/
.	A-	.	.	.	16cc/JJ
.	A-	.	.	.	16ee-\LL
.	A-	.	.	.	16aa-\
.	A-	.	.	.	16ccc\
.	A-	.	.	.	16bb-\JJ
=12	=12	=12	=12	=12	=12
Ib	E-	1r	1r	1r	16aa-\LL
.	E-	.	.	.	16gg\
.	E-	.	.	.	16ff\
.	E-	.	.	.	16ee-\JJ
V7/IV	E-	.	.	.	16dd-\LL
.	E-	.	.	.	16cc\
.	E-	.	.	.	16ee-\
.	E-	.	.	.	16dd-\JJ
.	E-	.	.	.	16ff\LL
.	E-	.	.	.	16ee-\
.	E-	.	.	.	16dd-\
.	E-	.	.	.	16cc\JJ
.	E-	.	.	.	16b-/LL
.	E-	.	.	.	16a-/
.	E-	.	.	.	16g/
.	E-	.	.	.	16b-/JJ
=13	=13	=13	=13	=13	=13
!!linebreak:original
IVb	A-	2r	16r	1r	16a-\LL
.	A-	.	16c/LL	.	16cc\
V7d	B-	.	16B-/	.	16b-\
.	B-	.	16A-/JJ	.	16a-\JJ
*Bbm:	*Bbm:	*	*	*	*
IV	E-	.	16G/LL	.	16g/LL
.	E-	.	16F/	.	16f/
V7d/VII	E-	.	16E-/	.	16e-/
.	E-	.	16D-/JJ	.	16d-/JJ
VIIb	A-	8r	16C/LL	.	16c/LL
.	A-	.	16E-/	.	16e-/
ib	B-	16r	16D-/	.	16d-/
.	B-	16F\	16F/JJ	.	16f/JJ
iv7d	E-	16E-/LL	16E-/LL	.	16e-/LL
.	E-	16D-/	16d-/	.	16d-/
.	E-	16C/	16c/	.	16c/
.	E-	16BB-/JJ	16B-/JJ	.	16B-/JJ
=14	=14	=14	=14	=14	=14
Vb	F	16AAn\LL	16An\LL	16An/LL	16An/LL
.	F	16C\	16c\	16c/	16c/
iv	E-	16E-\	16e-\	16e-/	16e-/
.	E-	16G-\JJ	16g-\JJ	16g-/JJ	16g-/JJ
Vb	F	16An\LL	16an\LL	16an\LL	16an\LL
.	F	16c\	16cc\	16cc\	16cc\
VIIc	A-	16e-\JJ	16ee-\JJ	16ee-\JJ	16ee-\
.	A-	16r	16r	16r	16cc\JJ
iv	E-	2r	2r	2r	16gg-\LL
.	E-	.	.	.	16ee-\
VII	A-	.	.	.	16ccc\
.	A-	.	.	.	16aan\JJ
iv	E-	.	.	.	16eee-\LL
.	E-	.	.	.	16eee-\
.	E-	.	.	.	16eee-\
.	E-	.	.	.	16eee-\JJ
=15	=15	=15	=15	=15	=15
!!pagebreak:original
.	E-	4r	4r	4eee-\	8eee-\
.	E-	.	.	.	8r
.	r	16r	16r	16r	16r
.	A-	16c\LL	16an\LL	16gg-\LL	16eee-\LL
.	A-	16c\	16a\	16gg-\	16eee-\
.	A-	16c\JJ	16a\JJ	16gg-\JJ	16eee-\JJ
.	A-	8c\	8a\	8gg-\	8eee-\
.	A-	8r	8r	8r	8r
.	r	4r	4r	4r	16r
.	E-	.	.	.	16eee-\LL
.	E-	.	.	.	16eee-\
.	E-	.	.	.	16eee-\JJ
=16	=16	=16	=16	=16	=16
.	E-	1r	1r	1r	4eee-\
iv7d	E-	.	.	.	16eee-\LL
.	E-	.	.	.	16ddd-\
.	E-	.	.	.	16ccc\
.	E-	.	.	.	16bb-\JJ
Dim	E-	.	.	.	16aan\LL
.	E-	.	.	.	16ggg-\
.	E-	.	.	.	16ggg-\
.	E-	.	.	.	16ggg-\JJ
.	E-	.	.	.	16ggg-\LL
.	E-	.	.	.	16ggg-\
.	E-	.	.	.	16ggg-\
.	E-	.	.	.	16ggg-\JJ
=17	=17	=17	=17	=17	=17
!!linebreak:original
V7d	F	16r	16r	16r	[4ggg-\
.	F	16e-\LL	16cc\LL	16aan\LL	.
.	F	16e-\	16cc\	16aa\	.
.	F	16e-\JJ	16cc\JJ	16aa\JJ	.
.	F	8e-\	8cc\	8aa\	16ggg-\LL]
.	F	.	.	.	32fff\L
.	F	.	.	.	32eee-\
i	B-	8r	8r	8r	32ddd-\
.	B-	.	.	.	32ccc\
.	B-	.	.	.	32bb-\
.	B-	.	.	.	32aan\JJJ
.	B-	16.r	16.r	16.r	16.bb-\LL
.	B-	32d-\LLK	32b-\LLK	32ff\LLK	32ddd-\K
.	B-	16.d-\	16.b-\	16.ff\	16.ddd-\
.	B-	32d-\JJk	32b-\JJk	32ff\JJk	32ddd-\JJk
.	B-	8d-\	8b-\	8ff\	8ddd-\
.	r	8r	8r	8r	8r
=18	=18	=18	=18	=18	=18
!!linebreak:original
.	B-	24BB-\LL	24B-\LL	24B-/LL	24B-/LL
.	B-	24D-\	24d-\	24d-/	24d-/
.	B-	24F\JJ	24f\JJ	24f/JJ	24f/JJ
.	B-	24B-\LL	24b-\LL	24b-\LL	24b-\LL
.	B-	24d-\	24dd-\	24dd-\	24dd-\
.	B-	24B-\JJ	24b-\JJ	24b-\JJ	24b-\JJ
*Fm:	*Fm:	*	*	*	*
iv	B-	24B-\LL	24b-\LL	24b-\LL	24b-\LL
.	B-	24c\	24cc\	24cc\	24cc\
.	B-	24B-\JJ	24b-\JJ	24b-\JJ	24b-\JJ
iv7c	B-	24A-\LL	24a-\LL	24a-/LL	24a-/LL
.	B-	24G\	24g\	24g/	24g/
.	B-	24F\JJ	24f\JJ	24f/JJ	24f/JJ
V7b	C	16.En\LL	16.en\LL	16.en\LL	16.en\LL
.	C	32E\K	32c\K	32cc\K 32gg\	32cc\K 32bb-\
.	C	16.E\	16.c\	16.cc\ 16.gg\	16.cc\ 16.bb-\
.	C	32E\JJk	32c\JJk	32cc\JJk 32gg\	32cc\JJk 32bb-\
.	C	8E\	8c\	8cc\ 8gg\	8cc\ 8bb-\
.	C	8r	8r	8r	8r
=19	=19	=19	=19	=19	=19
i	F	1r	1r	8r	8r
.	F	.	.	8cc\L	8aa-\L
VIIc	E-	.	.	8b-\	8gg\
ib	F	.	.	8a-\J	8ff\J
Vc	C	.	.	8g\L	8een\L
ivb	B-	.	.	8dd-\	8bb-\
ic	F	.	.	8cc\	8aa-\
iib	G	.	.	8b-\J	8gg\J
=20	=20	=20	=20	=20	=20
!!pagebreak:original
i	F	1r	1r	16a-/LL	16ff\LL
.	F	.	.	16g/	16een\
.	F	.	.	16b-/	16gg\
.	F	.	.	16a-/JJ	16ff\JJ
.	F	.	.	16cc/LL	16aa-\LL
.	F	.	.	16b-/	16gg\
i7	F	.	.	16a-/	16ff\
.	F	.	.	16g/JJ	16ee-\JJ
*Cm:	*Cm:	*	*	*	*
iv7d	F	.	.	16f/LL	16dd\LL
.	F	.	.	16e-/	16cc\
.	F	.	.	16g/	16ee-\
.	F	.	.	16f/JJ	16dd\JJ
.	F	.	.	16a-/LL	16ff\LL
.	F	.	.	16g/	16ee-\
.	F	.	.	16f/	16dd\
.	F	.	.	16e-/JJ	16cc\JJ
=21	=21	=21	=21	=21	=21
Vb	G	16r	16r	16d/LL	16bn/LL
.	G	16BBn\LL	16Bn\LL	16Bn/	16Bn/
VIIb	B-	16D\	16d\	16d/	16d/
.	B-	16F\JJ	16f\JJ	16f/JJ	16f/JJ
Dim	F	16A-\LL	16a-\LL	16a-/LL	16a-\LL
.	F	16Bn\	16bn\	16B/	16b\
VIIb	B-	16d\JJ	16dd\JJ	16d/	16dd\
.	B-	16r	16r	16f/JJ	16ff\JJ
iv	F	2r	2r	[4a-/	[4aa-\
.	F	.	.	16a-/LL]	16aa-\LL]
.	F	.	.	32g/L	32gg\L
.	F	.	.	32f/	32ff\
iv7	F	.	.	32e-/	32ee-\
.	F	.	.	32d/	32dd\
.	F	.	.	32c/	32cc\
.	F	.	.	32B/JJJ	32b\JJJ
=22	=22	=22	=22	=22	=22
!!linebreak:original
i	C	16r	16r	16c/LL	16cc/LL
.	C	16C\LL	16c\LL	16c/	16c/
.	C	16E-\	16e-\	16e-/	16e-/
.	C	16G\JJ	16g\JJ	16g/JJ	16g/JJ
.	C	16c\LL	16cc\LL	16cc\LL	16cc\LL
.	C	16G\	16g\	16g\	16g\
.	C	16e-\	16ee-\	16ee-\	16ee-\
.	C	16c\JJ	16cc\JJ	16cc\JJ	16cc\JJ
V7	G	24g\LL	24gg\LL	24gg\LL	24gg\LL
.	G	24f\	24ff\	24ff\	24ff\
.	G	24e-\	24ee-\	24ee-\	24ee-\
.	G	24d\	24dd\	24dd\	24dd\
.	G	24c\	24cc\	24cc\	24cc\
.	G	24Bn\JJ	24bn\JJ	24bn\JJ	24bn\JJ
*Gm:	*Gm:	*	*	*	*
iv	C	32c\LLL	32cc\LLL	32cc\LLL	32cc\LLL
.	C	32d\	32dd\	32dd\	32dd\
.	C	32e-\	32ee-\	32ee-\	32ee-\
.	C	32d\	32dd\	32dd\	32dd\
iv7c	C	32c\	32cc\	32cc\	32cc\
.	C	32B-\	32b-\	32b-\	32b-\
.	C	32An\	32an\	32an\	32a-\
.	C	32G\JJJ	32g\JJJ	32g\JJJ	32g\JJJ
=23	=23	=23	=23	=23	=23
Vc	D	16F#/LL	16f#\LL	16f#/LL	16f#/LL
.	D	16AAn/	16An\	16An/	16An/
iv	C	16C/	16c\	16c/	16c/
.	C	16E-/JJ	16e-\JJ	16e-/JJ	16e-/JJ
Vb	D	16F#\LL	16f#\LL	16f#\LL	16f#\LL
.	D	16An\	16an\	16an\	16an\
iv	C	16c\	16cc\	16cc\	16cc\
.	C	16e-\JJ	16ee-\JJ	16ee-\JJ	16ee-\JJ
.	C	4.e-\	4.ee-\	4.ee-\	4.ee-\
V	D	8d\	8dd\	8dd\	8dd\
=24	=24	=24	=24	=24	=24
!!linebreak:original
Dim	D	16.c\LL	16.a-\LL	16.dd\LL	16.ff#\LL
.	D	32c\K	32a-\K	32dd\K	32ff#\K
ib	G	16.B-\	16.g\	16.dd\	16.gg\
.	G	32B-\JJk	32g\JJk	32dd\JJk	32gg\JJk
V7c	D	16.An\LL	16.c/LL	16.ff#\LL	16.aan\LL
.	D	32A\K	32c/K	32ff#\K	32aa\K
i	G	16.G\	16.B-/	16.gg\	16.bb-\
.	G	32G\JJk	32B-/JJk	32gg\JJk	32bb-\JJk
V7b	D	16.F#\LL	16.An/LL	16.aan\LL	16.ccc\LL
.	D	32F#\K	32A/K	32ccc\K	32eee-\K
.	D	16.F#\	16.A/	16.ccc\	16.eee-\
.	D	32F#\JJk	32A/JJk	32ccc\JJk	32eee-\JJk
.	D	8F#\	8A/	8ccc\	8eee-\
.	r	8r	8r	8r	8r
=25	=25	=25	=25	=25	=25
.	r	2r	2r	16.r	16.r
.	C	.	.	32ccc\LLK	32eee-\LLK
.	C	.	.	16.ccc\	16.eee-\
.	C	.	.	32ccc\JJk	32eee-\JJk
.	C	.	.	8ccc\	8eee-\
.	r	.	.	8r	8r
.	r	16.r	16.r	16.r	16.r
.	D	32f#\LLK	32an\LLK	32cc\LLK	32dd\LLK
.	D	16.f#\	16.a\	16.cc\	16.dd\
.	D	32f#\JJk	32a\JJk	32cc\JJk	32dd\JJk
.	D	8f#\	8a\	8cc\	8dd\
.	D	8r	8r	8r	8r
=26	=26	=26	=26	=26	=26
!!pagebreak:original
i	G	4G\	16g\LL	16b-\LL	16dd\LL
.	G	.	16g\	16b-\	16dd\
.	G	.	16g\	16b-\	16dd\
.	G	.	16g\JJ	16b-\JJ	16dd\JJ
.	G	4B-\	16g\LL	16b-\LL	16dd\LL
.	G	.	16g\	16b-\	16dd\
.	G	.	16g\	16b-\	16dd\
.	G	.	16g\JJ	16b-\JJ	16dd\JJ
V7b	D	8F#\L	16an\LL	16cc\LL	16dd\LL
.	D	.	16a\	16cc\	16dd\
.	D	8d\J	16a\	16cc\	16dd\
.	D	.	16a\JJ	16cc\JJ	16dd\JJ
.	D	8r	16a\LL	16cc\LL	16dd\LL
.	D	.	16a\	16cc\	16dd\
.	D	8f#\	16a\	16cc\	16dd\
.	D	.	16a\JJ	16cc\JJ	16dd\JJ
=27	=27	=27	=27	=27	=27
i	G	8.g\L	16g\LL	16b-\LL	16dd\LL
.	G	.	16g\	16b-\	16dd\
i7d	G	.	16g\	16b-\	16dd\
.	G	16f\Jk	16g\JJ	16b-\JJ	16dd\JJ
iv7b	C	8.e-\L	16g\LL	16b-\LL	16cc\LL
.	C	.	16g\	16b-\	16cc\
.	C	.	16g\	16b-\	16cc\
.	C	32d\LL	16g\JJ	16b-\JJ	16cc\JJ
.	C	32e-\JJJ	.	.	.
VII	F	8f\L	16f\LL	16an/LL	16cc\LL
.	F	.	16f\	16a/	16cc\
.	F	8F\J	16f\	16a/	16cc\
.	F	.	16f\JJ	16a/JJ	16cc\JJ
.	F	8r	16f\LL	16a/LL	16cc\LL
.	F	.	16f\	16a/	16cc\
.	F	8f\	16f\	16a/	16cc\
.	F	.	16f\JJ	16a/JJ	16cc\JJ
=28	=28	=28	=28	=28	=28
!!linebreak:original
v	D	8.d\L	16f\LL	16an/LL	16b-\LL
.	D	.	16f\	16a/	16b-\
v7d	D	.	16f\	16a/	16b-\
.	D	32c\LL	16f\JJ	16a/JJ	16b-\JJ
.	D	32d\JJJ	.	.	.
iv7b	C	8e-\L	16e-\LL	16g/LL	16b-\LL
.	C	.	16e-\	16g/	16b-\
.	C	16.E-\L	16e-\	16g/	16b-\
.	C	.	16e-\JJ	16g/JJ	16b-\JJ
.	C	32e-\JJk	.	.	.
.	C	8.c\L	16e-\LL	16g/LL	16an/LL
.	C	.	16e-\	16g/	16a/
.	C	.	16e-\	16g/	16a/
.	C	32B-\LL	16e-\JJ	16g/JJ	16a/JJ
.	C	32c\JJJ	.	.	.
V	D	8d\L	16d\LL	16f#/LL	16a/LL
.	D	.	16d\	16f#/	16a/
ib	G	16.BB-\L	16d\	16f#/	16a/
.	G	.	16d\JJ	16f#/JJ	16a/JJ
.	G	32c\JJk	.	.	.
=29	=29	=29	=29	=29	=29
.	G	16.B-\LL	16.d\LL	16.g/LL	16.g/LL
.	G	32B-\K	32d\K	32g/K	32g/K
V7b	D	16.F#\	16.c\	16.d/	16.an/
.	D	32F#\JJk	32c\JJk	32d/JJk	32a/JJk
i	G	8G\	8B-/	8d/	8b-\
.	G	8r	8r	8r	8r
*Cm:	*Cm:	*	*	*	*
v	G	16.G\LL	16.d\LL	16.g/LL	16.b-\LL
.	G	32G\K	32d\K	32g/K	32b-\K
V7d	G	16.Fn\	16.d\	16.g/	16.bn\
.	G	32F\JJk	32d\JJk	32g/JJk	32b\JJk
ib	C	16.E-/LL	16.c\LL	16.g/LL	16.cc\LL
.	C	32E-/K	32c\K	32g/K	32cc\K
V7b	G	16.BBn/	16.f\	16.g/	16.dd\
.	G	32BB/JJk	32f\JJk	32g/JJk	32dd\JJk
=30	=30	=30	=30	=30	=30
!!linebreak:original
i	C	4C/	4e-\	4g/	8ee-\L
.	C	.	.	.	32ccc\LL
.	C	.	.	.	32ddd\
.	C	.	.	.	32eee-\
.	C	.	.	.	32ddd\JJJ
iv7b	F	16.r	16.r	16.r	8ccc\
.	F	32A-\LLK	32c\LLK	32e-/LLK	.
.	F	16.A-\	16.c\	16.e-/	8r
.	F	32A-\JJk	32c\JJk	32e-/JJk	.
i	C	4A-\	4c\	4e-/	8r
.	C	.	.	.	32ccc\LLL
.	C	.	.	.	32ddd\
.	C	.	.	.	32eee-\
.	C	.	.	.	32ddd\JJJ
.	C	16.r	16.r	16.r	8ccc\
.	C	32G\LLK	32c\LLK	32e-/LLK	.
.	C	16.G\	16.c\	16.e-/	8r
.	C	32G\JJk	32c\JJk	32e-/JJk	.
=31	=31	=31	=31	=31	=31
.	C	4G\	4c\	4e-/	8r
.	C	.	.	.	32ccc\LLL
.	C	.	.	.	32ddd\
.	C	.	.	.	32eee-\
.	C	.	.	.	32ddd\JJJ
Dim	C	16.r	16.r	16.r	8ccc\
.	C	32F#\LLK	32c\LLK	32e-/LLK	.
.	C	16.F#\	16.c\	16.e-/	8r
.	C	32F#\JJk	32c\JJk	32e-/JJk	.
.	C	4F#\	4c\	4e-/	4r
.	C	4r	4r	4r	8r
.	C	.	.	.	32ccc\LLL
.	C	.	.	.	32eee-\
.	C	.	.	.	32fff#\
.	C	.	.	.	32eee-\JJJ
=32	=32	=32	=32	=32	=32
!!pagebreak:original
.	C	2r	2r	2r	32ccc\LLL
.	C	.	.	.	32eee-\
.	C	.	.	.	32fff#\
.	C	.	.	.	32eee-\
.	C	.	.	.	32ccc\
.	C	.	.	.	32eee-\
.	C	.	.	.	32fff#\
.	C	.	.	.	32eee-\JJJ
.	C	.	.	.	8ccc\
.	r	.	.	.	8r
.	r	4r	4r	4r	4r
.	r	16.r	16.r	16.r	16.r
.	C	32FF#/LLK	32F#/LLK	32c/LLK	32e-/LLK
.	C	16.FF#/	16.F#/	16.c/	16.e-/
.	C	32FF#/JJk	32F#/JJk	32c/JJk	32e-/JJk
=33	=33	=33	=33	=33	=33
V	G	8GG/	8G/	8Bn/	8d/
.	r	8r	8r	8r	8r
.	G	8GG/	8D/	8B/	8g/
.	G	16.r	16.r	16.r	16.r
.	G	32GG/	32D/	32B/	32g/
.	G	4GG/	4D/	4B/	4g/
.	r	4r	4r	4r	4r
=34	=34	=34	=34	=34	=34
!!linebreak:original
*E-:	*E-:	*	*	*	*
I	E-	8EE-/	24B-\LL	8r	2b-\
.	E-	.	24e-\	.	.
.	E-	.	24g\	.	.
.	E-	8r	24b-\	8e-/L	.
.	E-	.	24g\	.	.
.	E-	.	24e-\JJ	.	.
.	E-	4r	24B-\LL	8g/	.
.	E-	.	24e-\	.	.
.	E-	.	24g\	.	.
.	E-	.	24b-\	8e-/J	.
.	E-	.	24g\	.	.
.	E-	.	24e-\JJ	.	.
.	E-	4E-\	24B-\LL	8r	4gg\
.	E-	.	24e-\	.	.
.	E-	.	24g\	.	.
.	E-	.	24b-\	8e-/L	.
.	E-	.	24g\	.	.
.	E-	.	24e-\JJ	.	.
V	B-	4r	24B-\LL	8f/	8ff\L
.	B-	.	24e-\	.	.
.	B-	.	24g\	.	.
I	E-	.	24b-\	8g/J	8ee-\J
.	E-	.	24g\	.	.
.	E-	.	24e-\JJ	.	.
=35	=35	=35	=35	=35	=35
V	B-	4BB-/	24B-\LL	8r	4dd\
.	B-	.	24d\	.	.
.	B-	.	24f\	.	.
V7	B-	.	24b-\	8f/L	.
.	B-	.	24a-\	.	.
.	B-	.	24d\JJ	.	.
.	B-	4r	24B-\LL	8a-/	8.dd\L
.	B-	.	24d\	.	.
.	B-	.	24f\	.	.
.	B-	.	24b-\	8d/J	.
.	B-	.	24a-\	.	.
.	B-	.	.	.	32ee-\LL
.	B-	.	24d\JJ	.	.
.	r	.	.	.	32ff\JJJ
I	E-	4E-\	24B-\LL	8r	4ee-\
.	E-	.	24e-\	.	.
.	E-	.	24g\	.	.
.	E-	.	24b-\	8e-/L	.
.	E-	.	24g\	.	.
.	E-	.	24e-\JJ	.	.
.	E-	4r	24B-\LL	8g/	4r
.	E-	.	24e-\	.	.
.	E-	.	24g\	.	.
.	E-	.	24b-\	8e-/J	.
.	E-	.	24g\	.	.
.	E-	.	24e-\JJ	.	.
=36	=36	=36	=36	=36	=36
!!linebreak:original
IV	A-	4AA-/	24c\LL	8r	2aa-\
.	A-	.	24e-\	.	.
.	A-	.	24a-\	.	.
.	A-	.	24cc\	8e-/L	.
.	A-	.	24a-\	.	.
.	A-	.	24e-\JJ	.	.
.	A-	4r	24c\LL	8a-/	.
.	A-	.	24e-\	.	.
.	A-	.	24a-\	.	.
.	A-	.	24cc\	8A-/J	.
.	A-	.	24a-\	.	.
.	A-	.	24e-\JJ	.	.
I	E-	4E-\	24B-\LL	8G/L	8bb-\L
.	E-	.	24e-\	.	.
.	E-	.	24g\	.	.
.	E-	.	24b-\	8e-/	8ggg\J
.	E-	.	24g\	.	.
.	E-	.	24e-\JJ	.	.
.	E-	4r	24B-\LL	8g/	16fff\LL
.	E-	.	24e-\	.	.
.	E-	.	.	.	16eee-\
.	E-	.	24g\	.	.
.	E-	.	24b-\	8e-/J	16ddd\
.	E-	.	24g\	.	.
.	E-	.	.	.	16ccc\JJ
.	E-	.	24e-\JJ	.	.
=37	=37	=37	=37	=37	=37
V	B-	4BB-/	24B-\LL	8r	4bb-\
.	B-	.	24d\	.	.
.	B-	.	24f\	.	.
V7	B-	.	24a-\	8d/L	.
.	B-	.	24f\	.	.
.	B-	.	24d\JJ	.	.
.	B-	4r	24B-\LL	8f/	4aa-\
.	B-	.	24d\	.	.
.	B-	.	24f\	.	.
.	B-	.	24a-\	8d/J	.
.	B-	.	24f\	.	.
.	B-	.	24d\JJ	.	.
I	E-	4EE-/	24B-\LL	8r	4gg\
.	E-	.	24e-\	.	.
.	E-	.	24g\	.	.
.	E-	.	24b-\	8e-/L	.
.	E-	.	24g\	.	.
.	E-	.	24e-\JJ	.	.
.	E-	4r	24B-\LL	8g/	4r
.	E-	.	24e-\	.	.
.	E-	.	24g\	.	.
.	E-	.	24b-\	8e-/J	.
.	E-	.	24g\	.	.
.	E-	.	24e-\JJ	.	.
=38	=38	=38	=38	=38	=38
!!pagebreak:original
.	E-	4E-\	24B-\LL	8r	4e-/
.	E-	.	24e-\	.	.
.	E-	.	24g\	.	.
.	E-	.	24b-\	8g/L	.
.	E-	.	24g\	.	.
.	E-	.	24e-\JJ	.	.
.	E-	4r	24B-\LL	8b-/	4gg\
.	E-	.	24e-\	.	.
.	E-	.	24g\	.	.
.	E-	.	24b-\	8e-/J	.
.	E-	.	24g\	.	.
.	E-	.	24e-\JJ	.	.
*B-:	*B-:	*	*	*	*
Ib	B-	4D\	24B-\LL	8r	8ff\L
.	B-	.	24d\	.	.
.	B-	.	24f\	.	.
.	B-	.	24b-\	8f/L	8ee-\J
.	B-	.	24f\	.	.
.	B-	.	24d\JJ	.	.
.	B-	4r	24B-\LL	8d/	4b-\
.	B-	.	24d\	.	.
.	B-	.	24f\	.	.
.	B-	.	24b-\	8B-/J	.
.	B-	.	24f\	.	.
.	B-	.	24d\JJ	.	.
=39	=39	=39	=39	=39	=39
!!linebreak:original
ii	C	4C/	24c\LL	8r	8ee-\L
.	C	.	24e-\	.	.
.	C	.	24g\	.	.
ii7	C	.	24b-\	8g/L	[8eee-\J
.	C	.	24g\	.	.
.	C	.	24e-\JJ	.	.
V7	F	4FF/	24c\LL	8an/	16eee-\LL]
.	F	.	24e-\	.	.
.	F	.	.	.	32ddd\L
.	F	.	24f\	.	.
.	r	.	.	.	32ccc\
v7	F	.	24an\	8cc/J	32bb-\
.	F	.	.	.	32aa-\
.	r	.	24f\	.	.
.	F	.	.	.	32gg\
.	F	.	24e-\JJ	.	.
.	r	.	.	.	32ff\JJJ
I	B-	4BB-/	24B-\LL	8r	4dd\
.	B-	.	24d\	.	.
.	B-	.	24f\	.	.
.	B-	.	24b-\	8f/L	.
.	B-	.	24f\	.	.
.	B-	.	24d\JJ	.	.
.	B-	4r	24B-\LL	8b-/	4r
.	B-	.	24d\	.	.
.	B-	.	24f\	.	.
.	B-	.	24b-\	8f/J	.
.	B-	.	24f\	.	.
.	B-	.	24d\JJ	.	.
=40	=40	=40	=40	=40	=40
!!linebreak:original
.	B-	4D\	24B-\LL	8r	4ff\
.	B-	.	24d\	.	.
.	B-	.	24f\	.	.
.	B-	.	24b-\	8b-/L	.
.	B-	.	24f\	.	.
.	B-	.	24d\JJ	.	.
.	B-	4r	24B-\LL	8f/	4bb-\
.	B-	.	24d\	.	.
.	B-	.	24f\	.	.
V7b/IV	B-	.	24b-\	8a-/J	.
.	B-	.	24f\	.	.
.	B-	.	24d\JJ	.	.
IV	E-	4E-\	24B-\LL	8r	4.gg\
.	E-	.	24e-\	.	.
.	E-	.	24g\	.	.
.	E-	.	24b-\	8B-/L	.
.	E-	.	24g\	.	.
.	E-	.	24e-\JJ	.	.
.	E-	4r	24B-\LL	8e-/	.
.	E-	.	24e-\	.	.
.	E-	.	24g\	.	.
.	E-	.	24b-\	8g/J	16ff\LL
.	E-	.	24g\	.	.
.	E-	.	.	.	16ee-\JJ
.	E-	.	24e-\JJ	.	.
=41	=41	=41	=41	=41	=41
!!pagebreak:original
iib	C	4E-\	24c\LL	8r	8dd\L
.	C	.	24e-\	.	.
.	C	.	24g\	.	.
ii7b	C	.	24b-\	8c/L	[8cc\J
.	C	.	24g\	.	.
.	C	.	24e-\JJ	.	.
V7b/V	C	4En\	24c\LL	8g/	16cc\LL]
.	C	.	24en\	.	.
.	C	.	.	.	16cc\
.	C	.	24g\	.	.
.	C	.	24b-\	8c/J	16dd\
.	C	.	24g\	.	.
.	C	.	.	.	16b-\JJ
.	C	.	24e\JJ	.	.
V	F	8F\	24c\LL	4r	8b-/L
.	F	.	24e\	.	.
.	F	.	24f\	.	.
.	F	8r	24an\	.	8an/J
.	F	.	24cc\	.	.
.	F	.	24b-\JJ	.	.
.	F	24r	24a\LL	24r	4r
.	F	24G\LL	24g\	24g/LL	.
.	F	24F\	24f\	24f/	.
V7c	F	24E-\	24e-\	24e-/	.
.	F	24D\	24d\	24d/	.
.	F	24C\JJ	24c\JJ	24c/JJ	.
=42	=42	=42	=42	=42	=42
!!linebreak:original
I	B-	8BB-/	24d\LL	4B-/	4dd\
.	B-	.	24f\	.	.
.	B-	.	24an\	.	.
.	B-	8r	24b-\	.	.
.	B-	.	24f\	.	.
.	B-	.	24d\JJ	.	.
V7	F	8F\	24c\LL	4r	8ee-\L
.	F	.	24e-\	.	.
.	F	.	24f\	.	.
.	F	8r	24a\	.	8cc\J
.	F	.	24f\	.	.
.	F	.	24e-\JJ	.	.
I	B-	8B-\	24d\LL	4d/	8.b-\L
.	B-	.	24f\	.	.
.	B-	.	24a\	.	.
.	B-	8r	24b-\	.	.
.	B-	.	24f\	.	.
.	B-	.	.	.	32cc\LL
.	B-	.	24d\JJ	.	.
.	r	.	.	.	32dd\JJJ
V7	F	8F\	24c\LL	8e-/L	8cc\
.	F	.	24e-\	.	.
.	F	.	24f\	.	.
.	F	8r	24a\	8c/J	8r
.	F	.	24f\	.	.
.	F	.	24e-\JJ	.	.
=43	=43	=43	=43	=43	=43
!!linebreak:original
I	B-	8BB-/	24d\LL	8.B-/L	4dd\
.	B-	.	24f\	.	.
.	B-	.	24an\	.	.
.	B-	8r	24b-\	.	.
.	B-	.	24f\	.	.
.	B-	.	.	32c/LL	.
.	B-	.	24d\JJ	.	.
.	r	.	.	32d/JJJ	.
V7	F	8F\	24c\LL	8c/	16ff\LL
.	F	.	24e-\	.	.
.	F	.	.	.	16ee-\
.	F	.	24f\	.	.
.	F	8r	24a\	8r	16dd\
.	F	.	24f\	.	.
.	F	.	.	.	16cc\JJ
.	F	.	24e-\JJ	.	.
I	B-	8B-\	24d\LL	4d/	8.b-\L
.	B-	.	24f\	.	.
.	B-	.	24a\	.	.
.	B-	8r	24b-\	.	.
.	B-	.	24f\	.	.
.	B-	.	.	.	32cc\LL
.	B-	.	24d\JJ	.	.
.	r	.	.	.	32dd\JJJ
V7	F	8F\	24c\LL	8e-/L	8cc\
.	F	.	24e-\	.	.
.	F	.	24f\	.	.
.	F	8r	24a\	8c/J	8r
.	F	.	24f\	.	.
.	F	.	24e-\JJ	.	.
=44	=44	=44	=44	=44	=44
!!pagebreak:original
Ib	B-	4D\	24d\LL	8B-/L	4ff\
.	B-	.	24f\	.	.
.	B-	.	24an\	.	.
.	B-	.	24b-\	8d/	.
.	B-	.	24f\	.	.
.	B-	.	24d\JJ	.	.
.	B-	4r	24B-\LL	8f/	4bb-\
.	B-	.	24d\	.	.
.	B-	.	24f\	.	.
.	B-	.	24b-\	8d/J	.
.	B-	.	24f\	.	.
.	B-	.	24d\JJ	.	.
IV	E-	4E-\	24B-\LL	8r	8aan\L
.	E-	.	24e-\	.	.
.	E-	.	24g\	.	.
.	E-	.	24b-\	8B-/L	8gg\J
.	E-	.	24g\	.	.
.	E-	.	24e-\JJ	.	.
.	E-	4r	24B-\LL	8g/	16ff\LL
.	E-	.	24e-\	.	.
.	E-	.	.	.	16ee-\
.	E-	.	24g\	.	.
.	E-	.	24b-\	8e-/J	16dd\
.	E-	.	24g\	.	.
.	E-	.	.	.	16cc\JJ
.	E-	.	24e-\JJ	.	.
=45	=45	=45	=45	=45	=45
!!linebreak:original
Ic	B-	4F\	24d\LL	8r	4b-\
.	B-	.	24f\	.	.
.	B-	.	24an\	.	.
.	B-	.	24b-\	8d/L	.
.	B-	.	24f\	.	.
.	B-	.	24d\JJ	.	.
V7c	F	4r	24c\LL	8e-/	16dd\LL
.	F	.	24e-\	.	.
.	F	.	.	.	16cc\JJ
.	F	.	24f\	.	.
.	F	.	24a\	8c/J	16.r
.	F	.	24f\	.	.
.	F	.	24e-\JJ	.	.
.	r	.	.	.	32b-\
I	B-	4BB-/	24d\LL	8r	4b-\
.	B-	.	24f\	.	.
.	B-	.	24a\	.	.
.	B-	.	24b-\	8B-/L	.
.	B-	.	24f\	.	.
.	B-	.	24d\JJ	.	.
.	B-	4r	24c\LL	8d/	4r
.	B-	.	24d\	.	.
.	B-	.	24f\	.	.
.	B-	.	24a\	8f/J	.
.	B-	.	24f\	.	.
.	B-	.	24d\JJ	.	.
=46	=46	=46	=46	=46	=46
!!linebreak:original
.	B-	8D\	8B-/	8B-/	8bb-\L
.	B-	8r	8r	8r	32bb-\LL
.	B-	.	.	.	32ff\
.	B-	.	.	.	32bb-\
.	B-	.	.	.	32ff\JJJ
.	B-	8D\	8d\	8b-\	8bb-\L
.	B-	8r	8r	8r	32bb-\LL
.	B-	.	.	.	32ff\
.	B-	.	.	.	32bb-\
.	B-	.	.	.	32ff\JJJ
*Gm:	*Gm:	*	*	*	*
IIIb	B-	4D\	4d\	4b-\	32bb-\LLL
.	B-	.	.	.	32ff#\
.	B-	.	.	.	32bb-\
.	B-	.	.	.	32ff#\
.	B-	.	.	.	32bb-\
.	B-	.	.	.	32ff#\
.	B-	.	.	.	32bb-\
.	B-	.	.	.	32ff#\JJJ
.	B-	4r	4r	4r	32bb-\LLL
.	B-	.	.	.	32ff#\
.	B-	.	.	.	32bb-\
.	B-	.	.	.	32ff#\
.	B-	.	.	.	32bb-\
.	B-	.	.	.	32ff#\
.	B-	.	.	.	32bb-\
.	B-	.	.	.	32ff#\JJJ
=47	=47	=47	=47	=47	=47
!!pagebreak:original
VI	E-	4E-\	4e-\	4b-\	32gg\LLL
.	E-	.	.	.	32ff#\
.	E-	.	.	.	32gg\
.	E-	.	.	.	32ff#\
.	E-	.	.	.	32gg\
.	E-	.	.	.	32ff#\
.	E-	.	.	.	32gg\
.	E-	.	.	.	32ff#\JJJ
.	E-	4r	4r	4r	8.gg\L
.	E-	.	.	.	16aan\Jk
.	E-	2r	2r	2r	24bb-\LL
.	E-	.	.	.	24ff#\
.	E-	.	.	.	24gg\
.	E-	.	.	.	24bb-\
.	E-	.	.	.	24bn\
.	E-	.	.	.	24cc\JJ
.	E-	.	.	.	24bb-\LL
.	E-	.	.	.	24ff#\
.	E-	.	.	.	24gg\
III	B-	.	.	.	24bb-\
.	B-	.	.	.	24cc#\
.	B-	.	.	.	24dd\JJ
=48	=48	=48	=48	=48	=48
!!linebreak:original
VI	E-	1r	1r	1r	24bb-\LL
.	E-	.	.	.	24ff#\
.	E-	.	.	.	24gg\
.	E-	.	.	.	24bb-\
.	E-	.	.	.	24dd\
.	E-	.	.	.	24ee-\JJ
.	E-	.	.	.	24bb-\LL
.	E-	.	.	.	24dd\
.	E-	.	.	.	24ee-\
.	E-	.	.	.	24gg\
.	E-	.	.	.	24bn\
.	E-	.	.	.	24cc\JJ
.	E-	.	.	.	24bb-\LL
.	E-	.	.	.	24dd\
.	E-	.	.	.	24ee-\
iv	C	.	.	.	24gg\
.	C	.	.	.	24b\
.	C	.	.	.	24cc\JJ
iv7	C	.	.	.	24bb-\LL
.	C	.	.	.	24dd\
.	C	.	.	.	24ee-\
.	C	.	.	.	24gg\
.	C	.	.	.	24b\
.	C	.	.	.	24cc\JJ
=49	=49	=49	=49	=49	=49
!!linebreak:original
*F:	*F:	*	*	*	*
I	F	1r	1r	1r	4f/
.	F	.	.	.	24en/LL
.	F	.	.	.	24f/
.	F	.	.	.	24an/
V7d/IV	F	.	.	.	24e-/
.	F	.	.	.	24f/
.	F	.	.	.	24a/JJ
.	F	.	.	.	24en/LL
.	F	.	.	.	24f/
.	F	.	.	.	24a/
.	F	.	.	.	24e-/
.	F	.	.	.	24f/
.	F	.	.	.	24a/JJ
.	F	.	.	.	24en/LL
.	F	.	.	.	24f/
.	F	.	.	.	24a/
.	F	.	.	.	24e-/
.	F	.	.	.	24f/
.	F	.	.	.	24ee-/JJ
=50	=50	=50	=50	=50	=50
.	F	8F\	8F/	24en/LL	4dd\
.	F	.	.	24f/	.
.	F	.	.	24an/	.
.	F	8r	8r	24e-/	.
.	F	.	.	24f/	.
.	F	.	.	24a/JJ	.
.	F	8F\	8F/	24en/LL	4cc\
.	F	.	.	24f/	.
.	F	.	.	24a/	.
.	F	8r	8r	24e-/	.
.	F	.	.	24f/	.
.	F	.	.	24a/JJ	.
IV	B-	4BB-/	4B-/	4b-\	4b-\
.	r	4r	4r	4r	4r
=51	=51	=51	=51	=51	=51
!!pagebreak:original
*Fm:	*Fm:	*	*	*	*
iv	B-	[4d-\	[4dd-\	[4dd-\	[4dd-\
.	r	24d-\LL]	24dd-\LL]	24dd-/LL]	24dd-/LL]
.	B-	24c\	24cc\	24cc/	24cc/
.	B-	24B-\	24b-\	24b-/	24b-/
.	B-	24A-\	24a-\	24a-/	24a-/
.	B-	24G\	24g\	24g/	24g/
.	B-	24F\JJ	24f\JJ	24f/JJ	24f/JJ
Vb	C	8En\	8en\	8en/	8en/
.	C	8r	8r	8r	8r
V7b	C	8E\	8c\	8gg\	8cc\ 8bb-\
.	r	16.r	16.r	16.r	16.r
.	C	32E\	32c\	32gg\	32cc\ 32bb-\
=52	=52	=52	=52	=52	=52
.	C	8En\	8c\	8gg\	8cc\ 8bb-\
.	r	8r	8r	8r	8r
.	r	4r	4r	4r	4r
.	F	4F\	8r	2cc\	24cc\LL
.	F	.	.	.	24ff\
.	F	.	.	.	24aa-\
.	F	.	8f\L	.	24ccc\
.	F	.	.	.	24aa-\
.	F	.	.	.	24ff\JJ
.	F	4r	8a-\	.	24cc\LL
.	F	.	.	.	24ff\
.	F	.	.	.	24aa-\
.	F	.	8f\J	.	24ccc\
.	F	.	.	.	24aa-\
.	F	.	.	.	24ff\JJ
=53	=53	=53	=53	=53	=53
!!linebreak:original
.	F	4F\	8r	4aa-\	24cc\LL
.	F	.	.	.	24ff\
.	F	.	.	.	24aa-\
.	F	.	8f\L	.	24ccc\
.	F	.	.	.	24aa-\
.	F	.	.	.	24ff\JJ
Vc	C	4r	8g\	8gg\L	24cc\LL
.	C	.	.	.	24ff\
.	C	.	.	.	24aa-\
ib	F	.	8a-\J	8ff\J	24ccc\
.	F	.	.	.	24aa-\
.	F	.	.	.	24ff\JJ
V7	C	4C/	8r	4een\	24cc\LL
.	C	.	.	.	24gg\
.	C	.	.	.	24bb-\
.	C	.	8g\L	.	24ccc\
.	C	.	.	.	24bb-\
.	C	.	.	.	24gg\JJ
.	C	4r	8b-\	8.ee\L	24cc\LL
.	C	.	.	.	24gg\
.	C	.	.	.	24bb-\
.	C	.	8en\J	.	24ccc\
.	C	.	.	.	24bb-\
.	C	.	.	32ff\LL	.
.	C	.	.	.	24gg\JJ
.	C	.	.	32gg\JJJ	.
=54	=54	=54	=54	=54	=54
!!linebreak:original
i	F	8F\	8f\	8ff\	24aa-\LL
.	F	.	.	.	24ccc\
.	F	.	.	.	24bb-\
.	F	8r	8r	8r	24aa-\
.	F	.	.	.	24gg\
.	F	.	.	.	24ff\JJ
V	C	24r	24r	24r	24een\LL
.	C	24d-\LL	24dd-\LL	24dd-\LL	24dd-\
.	C	24c\	24cc\	24cc\	24cc\
V7c	C	24B-\	24b-\	24b-\	24b-\
.	C	24A-\	24a-\	24a-\	24a-\
.	C	24G\JJ	24g\JJ	24g\JJ	24g\JJ
i	F	24F\LL	24f\LL	24f/LL	24f/LL
.	F	24A-\	24a-\	24a-/	24a-/
.	F	24G\	24g\	24g/	24g/
.	F	24F\	24f\	24f/	24f/
.	F	24c\	24cc\	24cc/	24cc/
.	F	24B-\JJ	24b-\JJ	24b-/JJ	24b-/JJ
*E-:	*E-:	*	*	*	*
ii	F	24A-\LL	24a-\LL	24a-/LL	24a-/LL
.	F	24G\	24g\	24g/	24g/
.	F	24F\	24f\	24f/	24f/
ii7c	F	24E-\	24e-\	24e-/	24e-/
.	F	24D\	24d\	24d/	24d/
.	F	24C\JJ	24c\JJ	24c/JJ	24c/JJ
=55	=55	=55	=55	=55	=55
!!pagebreak:original
V	B-	4BB-/	4B-/	4B-/	24B-/LL
.	B-	.	.	.	24d/
.	B-	.	.	.	24f/
V7	B-	.	.	.	24a-/
.	B-	.	.	.	24b-/
.	B-	.	.	.	24dd/JJ
ii7	F	4r	4r	4r	24ff\LL
.	F	.	.	.	24ee-\
.	F	.	.	.	24dd\
.	F	.	.	.	24cc\
.	F	.	.	.	24b-\
.	F	.	.	.	24a-\JJ
I	E-	4E-\	8r	2b-\	24g\LL
.	E-	.	.	.	24b-\
.	E-	.	.	.	24ee-\
.	E-	.	8e-\L	.	24gg\
.	E-	.	.	.	24ee-\
.	E-	.	.	.	24b-\JJ
.	E-	4r	8g\	.	24g\LL
.	E-	.	.	.	24b-\
.	E-	.	.	.	24ee-\
.	E-	.	8e-\J	.	24gg\
.	E-	.	.	.	24ee-\
.	E-	.	.	.	24b-\JJ
=56	=56	=56	=56	=56	=56
.	E-	4E-\	8r	4gg\	24g\LL
.	E-	.	.	.	24b-\
.	E-	.	.	.	24ee-\
.	E-	.	8e-\L	.	24gg\
.	E-	.	.	.	24ee-\
.	E-	.	.	.	24b-\JJ
Vc	B-	4r	8f\	8ff\L	24g\LL
.	B-	.	.	.	24b-\
.	B-	.	.	.	24ee-\
Ib	E-	.	8g\J	8ee-\J	24gg\
.	E-	.	.	.	24ee-\
.	E-	.	.	.	24b-\JJ
V7	B-	4BB-/	8r	4dd\	24a-\LL
.	B-	.	.	.	24b-\
.	B-	.	.	.	24dd\
.	B-	.	8f\L	.	24ff\
.	B-	.	.	.	24dd\
.	B-	.	.	.	24b-\JJ
.	B-	4r	8a-\	8.dd\L	24a-\LL
.	B-	.	.	.	24b-\
.	B-	.	.	.	24dd\
.	B-	.	8d\J	.	24ff\
.	B-	.	.	.	24dd\
.	B-	.	.	32ee-\LL	.
.	B-	.	.	.	24b-\JJ
.	r	.	.	32ff\JJJ	.
=57	=57	=57	=57	=57	=57
!!linebreak:original
I	E-	8E-\	8e-\	8ee-\	24g\LL
.	E-	.	.	.	24bb-\
.	E-	.	.	.	24aa-\
.	E-	8r	8r	8r	24gg\
.	E-	.	.	.	24ff\
.	E-	.	.	.	24ee-\JJ
V	B-	24r	24r	24r	24dd/LL
.	B-	24C/LL	24c/LL	24cc/LL	24cc/
.	B-	24BB-/	24B-/	24b-/	24b-/
V7c	B-	24AA-/	24A-/	24a-/	24a-/
.	B-	24GG/	24G/	24g/	24g/
.	B-	24FF/JJ	24F/JJ	24f/JJ	24f/JJ
I	E-	2EE-/	2E-/	2e-/	24e-/LL
.	E-	.	.	.	24g/
.	E-	.	.	.	24b-/
.	E-	.	.	.	24ee-/
.	E-	.	.	.	24b-/
.	E-	.	.	.	24g/JJ
.	E-	.	.	.	24e-/LL
.	E-	.	.	.	24g/
.	E-	.	.	.	24b-/
.	E-	.	.	.	24ee-/
.	E-	.	.	.	24b-/
.	E-	.	.	.	24g/JJ
=58	=58	=58	=58	=58	=58
!!linebreak:original
V7d/IV	E-	2DD-/	2D-/	2d-/	24d-/LL
.	E-	.	.	.	24e-/
.	E-	.	.	.	24g/
.	E-	.	.	.	24b-/
.	E-	.	.	.	24g/
.	E-	.	.	.	24e-/JJ
.	E-	.	.	.	24d-/LL
.	E-	.	.	.	24e-/
.	E-	.	.	.	24g/
.	E-	.	.	.	24b-/
.	E-	.	.	.	24g/
.	E-	.	.	.	24e-/JJ
*Fm:	*Fm:	*	*	*	*
V	C	4CC/	4C/	4c/	24c/LL
.	C	.	.	.	24en/
.	C	.	.	.	24g/
V7	C	.	.	.	24b-/
.	C	.	.	.	24cc/
.	C	.	.	.	24een/JJ
.	C	4r	4r	4r	24gg\LL
.	C	.	.	.	24ff\
.	C	.	.	.	24ee\
.	C	.	.	.	24dd-\
.	C	.	.	.	24cc\
.	C	.	.	.	24b-\JJ
=59	=59	=59	=59	=59	=59
!!pagebreak:original
i	F	24r	24r	24r	24a-/LL
.	F	24c\LL	24cc\LL	24cc/LL	24cc/
.	F	24B-\	24b-\	24b-/	24b-/
.	F	24A-\	24a-\	24a-/	24a-/
.	F	24G\	24g\	24g/	24g/
.	F	24F\JJ	24f\JJ	24f/JJ	24f/JJ
V	C	24En/LL	24en/LL	24en/LL	24en/LL
.	C	24D-/	24d-/	24d-/	24d-/
.	C	24C/	24c/	24c/	24c/
V7c	C	24BB-/	24B-/	24B-/	24B-/
.	C	24AA-/	24A-/	24A-/	24A-/
.	C	24GG/JJ	24G/JJ	24G/JJ	24G/JJ
ib	F	2AA-/	2A-/	2A-/	24A-/LL
.	F	.	.	.	24c/
.	F	.	.	.	24f/
.	F	.	.	.	24a-/
.	F	.	.	.	24f/
.	F	.	.	.	24c/JJ
.	F	.	.	.	24A-/LL
.	F	.	.	.	24c/
.	F	.	.	.	24f/
.	F	.	.	.	24a-/
.	F	.	.	.	24f/
.	F	.	.	.	24c/JJ
=60	=60	=60	=60	=60	=60
!!linebreak:original
*G:	*G:	*	*	*	*
Chr	F	2AAn/	4.An/	4.An/	24An/LL
.	F	.	.	.	24c/
.	F	.	.	.	24e-/
.	F	.	.	.	24f#/
.	F	.	.	.	24an/
.	F	.	.	.	24cc/JJ
.	F	.	.	.	24ee-/LL
.	F	.	.	.	24cc/
.	F	.	.	.	24a/
.	F	.	8c\	8f#/	24f#/
.	F	.	.	.	24e-/
.	F	.	.	.	24c/JJ
I	G	4GG/	4Bn/	4g/	24Bn/LL
.	G	.	.	.	24c/
.	G	.	.	.	24d/
.	G	.	.	.	24G/
.	G	.	.	.	24f#/
.	G	.	.	.	24g/JJ
Dim	C	4r	4r	4r	24G/LL
.	C	.	.	.	24en/
.	C	.	.	.	24f#/
ivc	C	.	.	.	24G/
.	C	.	.	.	24d/
.	C	.	.	.	24e-/JJ
=61	=61	=61	=61	=61	=61
!!linebreak:original
V7/IV	G	4GG/	4G/	4f/	24G/LL
.	G	.	.	.	24Bn/
.	G	.	.	.	24d/
ivc	C	.	.	.	24G/
.	C	.	.	.	24c/
.	C	.	.	.	24e-/JJ
I	G	4r	4r	4r	24G/LL
.	G	.	.	.	24B/
.	G	.	.	.	24d/
IVc	C	.	.	.	24G/
.	C	.	.	.	24An/
.	C	.	.	.	24c/JJ
I	G	4GG/	8r	8g\L	24G/LL
.	G	.	.	.	24B/
.	G	.	.	.	24d/
ivc	C	.	8ee-\L	8gg\	24G/
.	C	.	.	.	24c/
.	C	.	.	.	24e-/JJ
V7/IV	G	4r	8dd\	8ff\	24G/LL
.	G	.	.	.	24B/
.	G	.	.	.	24d/
ivc	C	.	8cc\J	8ee-\J	24G/
.	C	.	.	.	24c/
.	C	.	.	.	24e-/JJ
=62	=62	=62	=62	=62	=62
!!pagebreak:original
I	G	4GG/	8bn\L	8dd\L	24Bn/LL
.	G	.	.	.	24c/
.	G	.	.	.	24d/
ivc	C	.	8cc\	8ee-\	24G/
.	C	.	.	.	24f#/
.	C	.	.	.	24g/JJ
I	G	4r	8b\	8dd\	24G/LL
.	G	.	.	.	24en/
.	G	.	.	.	24f#/
iio7	A	.	8an\J	8cc\J	24G/
.	A	.	.	.	24d/
.	A	.	.	.	24e-/JJ
I	G	4GG/	8g\L	8bn\L	24B/LL
.	G	.	.	.	24c/
.	G	.	.	.	24d/
ivc	C	.	8cc\	8ee-\	24G/
.	C	.	.	.	24f#/
.	C	.	.	.	24g/JJ
I	G	4r	8b\	8dd\	24G/LL
.	G	.	.	.	24en/
.	G	.	.	.	24f#/
ivc	C	.	8cc\J	8ee-\J	24G/
.	C	.	.	.	24d/
.	C	.	.	.	24e-/JJ
=63	=63	=63	=63	=63	=63
I	G	8GG/	8bn\	8dd\	8G/
.	G	8r	8r	8r	8r
.	G	8GG/	8G/	8Bn/	8g/
.	G	16.r	16.r	16.r	16.r
.	G	32GG/	32G/	32B/	32g/
.	G	4GG/	4G/	4B/	4g/
.	r	4r	4r	4r	4r
=	=	=	=	=	=
*-	*-	*-	*-	*-	*-
